X: 19
T:My Dearie
M:4/4
L:1/8
S:ABAB
K:G
B>A|G2D2 D>E GB,|D3 E D2 GA|BA GF E>F ED|E2 A2 A2 B2|!
D3 E G3 B|A>G AB d3 e|(3ded c>B cB AG|E2 G2 G2 Bc||!
d3 e de gB|AG AB d2 Bd|e>f gf ed Bd|e6 f2|!
g2 dc B2 AG|A>G AB d3 e|d>e gB cB AG|E2 G2 G2||
